X:1
T:Amor tu che poi vincer
T:Giovanni Francesco Capuano
T:Source : Secondo libro delle villanelle a 3 voci---Venetia---Figlio d'A.Gardano---1574. Editor : André Vierendeels (23/03/16).
T:Notes : Original clefs : C1, C3, C4 Editorial accidentals above the staff "Alla napolitana" Music by composers from Bari, collected by G.de Antiquis m 15 in S: "D" notated as "F" in original print
T:Amor tu che poi vincer
T:©
T:©
C:Giovanni Francesco Capuano
Z:©
%%score [ 1 [ 2 3 ] ]
L:1/8
Q:1/4=89
M:4/4
K:F
V:1 treble nm="Soprano" snm="S"
V:2 treble-8 nm="Tenor 1" snm="T 1"
V:3 treble-8 nm="Tenor 2" snm="T 2"
V:1
 D4 F4- | F2 F2 E2 D2 | E4 F2 A2 | A3 A G2 F2 | G4 A4 | B3 B A4 |[M:2/4] G4 ::[M:3/4] A4 G2- | %8
w: 1)A- mor|_ tu che poi|vin- cer, A-|mor tu che poi|vin- cer,|1)o- gn'im- pre-|sa,|dam- mi|
w: 2)Stà l'al-|* ma mi- a|sol, stà l'al-|ma mi- a sol|di ven-|2)det- t'ac- ce-|sa,|e per-|
w: 3)So che|_ non po- tra|far, so che|non po- trà far|mol- *|3)ta dif- fe-|sa,|ne mai|
w: 4)Son dis-|* po- sto fi-|nir, son dis-|po- sto fi- nir|tan- *|4)te con te-|se,|e se|
[M:4/4] G2 F2 c4 | B2 B2 B2 G2 | A4 B4 | A3 G F2 G2 | E4 D4 | G4 A2 A2 | G4 D4 | E4 D2 D2 | %16
w: _ soc- cor-|so, dam- mi soc-|1)cor- so'e|mo- stra- mi la|vi- a,|di por mi|sot- to,|1)di por mi|
w: * cio fiam-|ma, e per- cio|2)cio fiam-|m'a- mor tu com-|pa- gnia,|di por mi|sot- to,|2)di por mi|
w: _ piu bel-|la, ne mai piu|3)bel- la'im-|pre- sa far po-|tri- a,|di por mi|sot- to,|3)di por mi|
w: _ pos- *|so, e se pos-|4)so ve-|nir se- co'all' im-|pre- se,|ell' an- dra|sot- to,|4)ell' an- dra|
 C4 G2 F2- | F2 G2 G2 F2 | E4 D4 :| %19
w: sot- to la|_ ne- mi- ca|mi- a.|
w: sot- to la|_ ne- mi- ca|mi- a.|
w: sot- to la|_ ne- mi- ca|mi- a.|
w: sot- to'e scon-|* te- ra l'of-|fe- se.|
V:2
 B4 d4- | d2 d2 ^c2 d2- |"^#" d2 c2 d2 f2 | f3 f e2 f2- | f2 e2 f3 e |"^#" d2 g4 f2 |[M:2/4] g4 :: %7
w: 1)A- mor|_ tu che poi|_ vin- cer, A-|mor tu che poi|_ vin- cer o|1)gn'im pre- *|sa,-|
w: 2)Stà l'al-|* ma mi- a|_ _ sol, stà|l'al- ma mi- a-|* * sol di|2)ven- det- *|ta,|
[M:3/4] f4 e2- |[M:4/4] e2 d2 c4 | d3 e f2 g2- |"^#" g2 f2 g4 | f3 e d2 d2- |"^#" d2 c2 d2 d2 | %13
w: dam- mi|_ soc- cor-|so, sam- mi soc-|1)- cor- so'e,|mo- stra mi la|_ vi- a, di|
w: e per|_ cio fiam-|ma, e per- cio|2)fiam m'a- mor|tu _ _ com-|* pa- gnia, di|
 c4 F4 | c4 G2 G2 | g2 g2 f4 | e4 d2 d2 | d6 d2- | d2 ^c2 d4 :| %19
w: por mi|sot- to, di|1)por mi sot-|to la ne-|mi ca|_ mi- a.|
w: por mi|sot- to, di|2)por mi sot-|to la ne-|mi- ca|_ mi- a.|
V:3
 G4 D4- | D2 D2 A2 B2 | A4 D2 d2 | d3 d c2 B2 | c4 F4 | G2 G2 d4 |[M:2/4] G4 ::[M:3/4] d4 c2- | %8
w: 3)So che|_ non po- tra|far, so che|non po- tra far|mol- *|3)ta dif- fe-|sa,|ne mai|
w: 4)Son dis-|* po- sto fi-|nir, son dis-|po- sto fi- nir|tan- *|4)te con- tes-|se,|e se|
[M:4/4] c2 B2 A4 | G2 G2 B2 c2 | d4 G4 | A3 A B2 G2 | A4 D2 d2 | e4 f4 | e4 d4 | c3 c B2 B2 | %16
w: _ piu bel-|la, ne mai piu|3)bel- la'im-|pre- sa far po-|tri- a, di|por mi|sot- to,|3)di por mi sot-|
w: _ pos- so,|e se pos- so|4)ve- nir|se- co all' im-|pre- sa, ell'|an- dra|sot- to,|4)ell' an- dra sot-|
 A4 G2 B2- | B2 G2 G2 B2 | A4 D4 :| %19
w: to la ne-|* mi- ca mi-|* a.|
w: to la ne-|* mi- ca mi-|* a.|

